!!!OTL: Alte Kuckukslieder. /b. Kuckuks Verachtung.
!!!ARE: Europa, Mitteleuropa, Deutschland
!!!SCT: A0170B
!!!TXL: @@GMH
!!!YEM: Copyright 1995, estate of Helmut Schaffrath.
**kern	**text
*M3/4	*
*met(3)	*
*clefC4	*
*k[b-]	*
*F:	*
{4F	Guckguck,
=1	=1
2A	.
4G	du
=2	=2
2A	biſt
4B-	ſchabab,
=3	=3
2c}	.
{4c	ich
=4	=4
4.c	weiß
8B-	mir
4A	ein
=5	=5
4B-	an-
4A	-dre
4G	im
=6	=6
2F}	hag.
{4A	Pfui
=7	=7
2B-	dich,
4B-	pfui
=8	=8
2A	dich,
4F	du
=9	=9
2G	ſchwartʒer
4G	.
=10	=10
4F	vo-
4F}	-gel,
{4F	ſo
=11	=11
2B-	thut
4B-	man
=12	=12
2A	dich
4F	doch
=13	=13
2G	nin-
4G	-dert
=14	=14
4F	lo-
4F}	-ben.
==	==
!!!GTL: Liebeslieder
!!!AGN: Romanze, Ballade, Lied
!! Aus Fragmenten in Schmeltzels neuntem Quodlibet (1544) von mir
!!    zusammengefuegt. Anders und ohne alle musikalische Ruecksicht
!!    von Uhland No. 14 zusammengesetzt.
!!!ONB: ESAC (Essen Associative Code) Database: ALTDEU
!!!AMT: simple triple
!!!AIN: vox
!!!EED: Helmut Schaffrath
!!!EEV: 1.0
!!!URL-scan:https://rosdok.uni-rostock.de/mcrviewer/recordIdentifier/rosdok_ppn738218359/iview2/phys_0334.iview2?x=-495.6391625615763&y=1976.4901477831881&scale=0.4629418472063854&rotation=0&layout=singlePageLayout&logicalDiv=log_0009
!!!ENC: Anna Maria Matuszewska
!!!EEV: 2024/07/03
*-	*-
